images/icon-linkedin.svg

<svg fill="none" height="27" viewBox="0 0 27 27" width="27" xmlns="http://www.w3.org/2000/svg"><rect fill="#048ac8" height="27" rx="3" width="27"/><path clip-rule="evenodd" d="m21.9999 21.4545h-3.7572v-5.4328c0-1.4221-.5877-2.3929-1.8801-2.3929-.9885 0-1.5383.6551-1.7942 1.2865-.0959.2266-.0809.5423-.0809.858v5.6812h-3.7222s.0479-9.6238 0-10.4986h3.7222v1.6477c.2199-.7204 1.4093-1.7486 3.3074-1.7486 2.3549 0 4.205 1.5101 4.205 4.7619zm-14.99885-11.8118h-.02399c-1.19943 0-1.97706-.80256-1.97706-1.81987 0-1.03709.80062-1.82283 2.02404-1.82283 1.22242 0 1.97407.78376 1.99805 1.81986 0 1.01731-.77563 1.82284-2.02104 1.82284zm-1.5726 1.3132h3.31343v10.4986h-3.31343z" fill="#fff" fill-rule="evenodd"/></svg>

<svg width="27" height="27" viewBox="0 0 27 27" fill="none" xmlns="http://www.w3.org/2000/svg">
<rect width="27" height="27" rx="3" fill="#048AC8"/>
<path fill-rule="evenodd" clip-rule="evenodd" d="M21.9999 21.4545H18.2427V16.0217C18.2427 14.5996 17.655 13.6288 16.3626 13.6288C15.3741 13.6288 14.8243 14.2839 14.5684 14.9153C14.4725 15.1419 14.4875 15.4576 14.4875 15.7733V21.4545H10.7653C10.7653 21.4545 10.8132 11.8307 10.7653 10.9559H14.4875V12.6036C14.7074 11.8832 15.8968 10.855 17.7949 10.855C20.1498 10.855 21.9999 12.3651 21.9999 15.6169V21.4545ZM7.00105 9.6427H6.97706C5.77763 9.6427 5 8.84014 5 7.82283C5 6.78574 5.80062 6 7.02404 6C8.24646 6 8.99811 6.78376 9.02209 7.81986C9.02209 8.83717 8.24646 9.6427 7.00105 9.6427ZM5.42845 10.9559H8.74188V21.4545H5.42845V10.9559Z" fill="white"/>
</svg>
